img/Delete.svg

<svg width="22" height="25" viewBox="0 0 22 25" fill="none" xmlns="http://www.w3.org/2000/svg">
<path d="M15 25H7C5.67392 25 4.40215 24.4934 3.46447 23.5918C2.52678 22.6902 2 21.4673 2 20.1923V8.6538C2 8.39878 2.10536 8.15421 2.29289 7.97389C2.48043 7.79357 2.73478 7.69226 3 7.69226C3.26522 7.69226 3.51957 7.79357 3.70711 7.97389C3.89464 8.15421 4 8.39878 4 8.6538V20.1923C4 20.9573 4.31607 21.691 4.87868 22.232C5.44129 22.773 6.20435 23.0769 7 23.0769H15C15.7956 23.0769 16.5587 22.773 17.1213 22.232C17.6839 21.691 18 20.9573 18 20.1923V8.6538C18 8.39878 18.1054 8.15421 18.2929 7.97389C18.4804 7.79357 18.7348 7.69226 19 7.69226C19.2652 7.69226 19.5196 7.79357 19.7071 7.97389C19.8946 8.15421 20 8.39878 20 8.6538V20.1923C20 21.4673 19.4732 22.6902 18.5355 23.5918C17.5979 24.4934 16.3261 25 15 25Z" fill="#598BB9"/>
<path d="M21 5.76927H1C0.734784 5.76927 0.48043 5.66796 0.292893 5.48764C0.105357 5.30732 0 5.06275 0 4.80773C0 4.55271 0.105357 4.30814 0.292893 4.12782C0.48043 3.9475 0.734784 3.84619 1 3.84619H21C21.2652 3.84619 21.5196 3.9475 21.7071 4.12782C21.8946 4.30814 22 4.55271 22 4.80773C22 5.06275 21.8946 5.30732 21.7071 5.48764C21.5196 5.66796 21.2652 5.76927 21 5.76927Z" fill="#598BB9"/>
<path d="M15 5.76923H7C6.73478 5.76923 6.48043 5.66793 6.29289 5.4876C6.10536 5.30728 6 5.06271 6 4.80769V2.88462C6 2.11957 6.31607 1.38585 6.87868 0.844884C7.44129 0.303914 8.20435 0 9 0H13C13.7957 0 14.5587 0.303914 15.1213 0.844884C15.6839 1.38585 16 2.11957 16 2.88462V4.80769C16 5.06271 15.8946 5.30728 15.7071 5.4876C15.5196 5.66793 15.2652 5.76923 15 5.76923ZM8 3.84615H14V2.88462C14 2.6296 13.8946 2.38503 13.7071 2.20471C13.5196 2.02438 13.2652 1.92308 13 1.92308H9C8.73478 1.92308 8.48043 2.02438 8.29289 2.20471C8.10536 2.38503 8 2.6296 8 2.88462V3.84615Z" fill="#598BB9"/>
<path d="M9 19.2308C8.73478 19.2308 8.48043 19.1294 8.29289 18.9491C8.10536 18.7688 8 18.5242 8 18.2692V11.5384C8 11.2834 8.10536 11.0389 8.29289 10.8585C8.48043 10.6782 8.73478 10.5769 9 10.5769C9.26522 10.5769 9.51957 10.6782 9.70711 10.8585C9.89464 11.0389 10 11.2834 10 11.5384V18.2692C10 18.5242 9.89464 18.7688 9.70711 18.9491C9.51957 19.1294 9.26522 19.2308 9 19.2308Z" fill="#598BB9"/>
<path d="M13 19.2308C12.7348 19.2308 12.4804 19.1294 12.2929 18.9491C12.1054 18.7688 12 18.5242 12 18.2692V11.5384C12 11.2834 12.1054 11.0389 12.2929 10.8585C12.4804 10.6782 12.7348 10.5769 13 10.5769C13.2652 10.5769 13.5196 10.6782 13.7071 10.8585C13.8946 11.0389 14 11.2834 14 11.5384V18.2692C14 18.5242 13.8946 18.7688 13.7071 18.9491C13.5196 19.1294 13.2652 19.2308 13 19.2308Z" fill="#598BB9"/>
</svg>

<svg width="22" height="25" fill="none" xmlns="http://www.w3.org/2000/svg"><path d="M15 25H7a5.103 5.103 0 0 1-3.536-1.408A4.716 4.716 0 0 1 2 20.192V8.654c0-.255.105-.5.293-.68A1.02 1.02 0 0 1 3 7.692c.265 0 .52.102.707.282.188.18.293.425.293.68v11.538c0 .765.316 1.499.879 2.04A3.062 3.062 0 0 0 7 23.077h8a3.06 3.06 0 0 0 2.121-.845 2.83 2.83 0 0 0 .879-2.04V8.654c0-.255.105-.5.293-.68A1.02 1.02 0 0 1 19 7.692c.265 0 .52.102.707.282.188.18.293.425.293.68v11.538a4.716 4.716 0 0 1-1.465 3.4A5.103 5.103 0 0 1 15 25Zm6-19.23H1a1.02 1.02 0 0 1-.707-.282.943.943 0 0 1-.293-.68c0-.255.105-.5.293-.68A1.02 1.02 0 0 1 1 3.846h20c.265 0 .52.101.707.282.188.18.293.425.293.68 0 .255-.105.5-.293.68a1.02 1.02 0 0 1-.707.281Z" fill="#598BB9"/><path d="M15 5.77H7a1.02 1.02 0 0 1-.707-.282.943.943 0 0 1-.293-.68V2.885c0-.765.316-1.5.879-2.04A3.062 3.062 0 0 1 9 0h4a3.06 3.06 0 0 1 2.121.845A2.83 2.83 0 0 1 16 2.885v1.923c0 .255-.105.5-.293.68a1.02 1.02 0 0 1-.707.281ZM8 3.845h6v-.961c0-.255-.105-.5-.293-.68A1.02 1.02 0 0 0 13 1.923H9c-.265 0-.52.101-.707.282a.943.943 0 0 0-.293.68v.961ZM9 19.23a1.02 1.02 0 0 1-.707-.28.943.943 0 0 1-.293-.68v-6.732c0-.255.105-.5.293-.68A1.02 1.02 0 0 1 9 10.577c.265 0 .52.101.707.281.188.18.293.425.293.68v6.731c0 .255-.105.5-.293.68a1.02 1.02 0 0 1-.707.282Zm4 0a1.02 1.02 0 0 1-.707-.28.943.943 0 0 1-.293-.68v-6.732c0-.255.105-.5.293-.68a1.02 1.02 0 0 1 .707-.281c.265 0 .52.101.707.281.188.18.293.425.293.68v6.731c0 .255-.105.5-.293.68a1.02 1.02 0 0 1-.707.282Z" fill="#598BB9"/></svg>
